X:1
T:D minor Daniel Belknap, 1802
T:Isaac Watts, 1709 (Hymn 55, Book 2)  86. 86. (C. M.)
T:Mendon
T:Transcribed from The Village Compilation, 1806.
%%score [ 1 2 3 4 ]
L:1/8
M:2/4
K:F
V:1 treble nm="Treble" snm="Tr."
V:2 treble nm="Counter" snm="C."
V:3 treble-8 nm="Tenor" snm="T."
V:4 bass nm="Bass" snm="B."
V:1
 A2 | A3 A | A3 c | cd cA | G3 G | A2 Ac | cB A^G | A3 A | (A d2) c | c3 f | e2 d2 | ^c3 c | %12
w: 1.~Thee|we a-|dore, e-|ter- * nal *|name, And|hum- bly *|own * to *|thee How|fee- * ble|is our|mor- tal|frame! What|
 d2 c=B/c/ | A2 A2 | A4 |: z2 z A | A2 A2 | A3 c | dc/B/ AB | c3 B | (A G2) G | AB cB | A3 A | %23
w: dy- ing * *|worms are|we!|Our|waas- ting|lives grow|shor- * * * ter|still As|months * and|days * * in-|crease; And|
 cB Ac | d3 d | cB Ac | d2 z e | (3fed (3cde | A2 A2 | A4 :| %30
w: eve- * * ry|bea- ting|pulsse * * we|tell Leaves|but * * the * *|num- ber|less.|
V:2
 D2 | D3 E | F3 F | F2 F2 | E3 E | DF FE | DE FE | F3 F/E/ | D3 D/F/ | E3 F | G2 F2 | E3 E | %12
w: 2.~The|year rolls|round, and|steals a-|way The|breath * that *|first * it *|gave; What- *|e'er we *|do, where-|e'er we|be, We're|
 F2 FE/F/ | D2 ^C2 | D4 |: z2 z D | D2 F2 | F3 G | F2 E2 | E3 D | E3 F | E2 D2 | ^C3 D | FE DE | %24
w: trave- ling * *|to the|grave.|Dan-|gers stand|think through|all the|ground To|push us|to the|tomb, And|fierce * dis- *|
 F3 F | FE DE | F2 z E | (3FGA (3GFE | D2 ^C2 | D4 :| %30
w: ea- ses|wait * a- *|round To|hur- * * ry * *|mor- tals|home.|
V:3
 D2 | A3 ^c | d3 c | fd AF | c3 B | Ad de | fe d^c | d3 A | F3 A | G3 F | cB A^G | A3 A | %12
w: 3.~Great|God! on|what a|slen- * der *|thread Hang|ev- * er- *|las- * ting *|things! Th'e-|ter- nal|states of|all * the *|dead Up-|
 FG A^G/A/ | F2 E2 | D4 |: z2 z A | d2 d2 | c3 c | fe/d/ cB | A3 d | c>B cd | cB A^G | A3 B | %23
w: on * life's * *|fee- ble|strings.|In-|fi- nite|joy or|end- * * * less|woe At-|tends * * on|eve- * * ry|breath, And|
 AG FG | A3 B | AG FG | A2 z A | (3def (3edc | A2 (3ABc | d4 :| %30
w: yet * * how|un- con-|cerned * * we|go Up-|on * * the * *|brink of * *|death!|
V:4
 D,2 | D,3 A,, | D,3 A, | F,2 F,2 | C,3 A,, | D,2 D,2 | A,2 A,,2 | D,3 D, | D,3 F, | C,3 C, | %10
 C,2 D,2 | A,,3 A,, | D,2 F,2 | A,2 A,,2 | D,4 |: z2 z D, | D,2 D,2 | F,3 E, | D,2 E,2 | A,,3 A,, | %20
 C,3 C, | C,2 D,2 | A,,3 D, | D,2 D,2 | D,3 D, | D,2 D,2 | D,2 z A, | F,2 C,2 | D,2 A,,2 | D,4 :| %30

